src/static/b_cloud01.svg

<svg xmlns="http://www.w3.org/2000/svg" width="380" height="184" viewBox="0 0 380 184">
  <g fill="#fceccb" fill-rule="evenodd" opacity="1">
    <path d="M134.7601 172.9765C134.7601 167.3435 140.2891 162.7365 147.0481 162.7365L270.3371 162.7365C277.0961 162.7365 282.6251 167.3435 282.6251 172.9765 282.6251 178.6085 277.0961 183.2155 270.3371 183.2155L147.0481 183.2155C140.2891 183.2155 134.7601 178.6085 134.7601 172.9765M341.1986 134.0644C341.1986 128.4314 346.7276 123.8244 353.4866 123.8244L367.4126 123.8244C374.1716 123.8244 379.7006 128.4314 379.7006 134.0644 379.7006 139.6964 374.1716 144.3034 367.4126 144.3034L353.4866 144.3034C346.7276 144.3034 341.1986 139.6964 341.1986 134.0644M99.1244 172.9765C99.1244 167.3435 103.7324 162.7365 109.3644 162.7365 114.9964 162.7365 119.6044 167.3435 119.6044 172.9765 119.6044 178.6085 114.9964 183.2155 109.3644 183.2155 103.7324 183.2155 99.1244 178.6085 99.1244 172.9765M34.8177 93.1044C34.8177 87.4714 40.3467 82.8644 47.1057 82.8644L61.0317 82.8644C67.7907 82.8644 73.3197 87.4714 73.3197 93.1044 73.3197 98.7364 67.7907 103.3434 61.0317 103.3434L47.1057 103.3434C40.3467 103.3434 34.8177 98.7364 34.8177 93.1044"/>
    <path d="M12.6996,21.4237 L111.0036,21.4237 C117.7626,21.4237 123.2916,26.0317 123.2916,31.6637 C123.2916,37.2957 117.7626,41.9037 111.0036,41.9037 L105.6786,41.9037 C98.9206,41.9037 93.3896,46.5117 93.3896,52.1447 C93.3896,57.7767 98.9206,62.3837 105.6786,62.3837 L172.4426,62.3837 C179.2016,62.3837 184.7306,66.9917 184.7306,72.6237 C184.7306,78.2557 179.2016,82.8637 172.4426,82.8637 L92.1616,82.8637 C85.4036,82.8637 79.8736,87.4717 79.8736,93.1047 C79.8736,98.7367 85.4036,103.3437 92.1616,103.3437 L196.1996,103.3437 C202.9586,103.3437 208.4876,107.9517 208.4876,113.5837 C208.4876,119.2157 202.9586,123.8237 196.1996,123.8237 L110.1836,123.8237 C103.4256,123.8237 97.8956,128.4317 97.8956,134.0647 C97.8956,139.6957 103.4256,144.3037 110.1836,144.3037 L319.0806,144.3037 C325.8386,144.3037 331.3676,139.6957 331.3676,134.0647 C331.3676,128.4317 325.8386,123.8237 319.0806,123.8237 L240.8466,123.8237 C234.0886,123.8237 228.5576,119.2157 228.5576,113.5837 C228.5576,107.9517 234.0886,103.3437 240.8466,103.3437 L270.3376,103.3437 C277.0966,103.3437 282.6256,98.7367 282.6256,93.1047 C282.6256,87.4717 277.0966,82.8637 270.3376,82.8637 L270.7476,82.8637 C263.9886,82.8637 258.4596,78.2557 258.4596,72.6237 C258.4596,66.9917 263.9886,62.3837 270.7476,62.3837 L363.7256,62.3837 C370.4846,62.3837 376.0136,57.7767 376.0136,52.1447 C376.0136,46.5117 370.4846,41.9037 363.7256,41.9037 L202.7536,41.9037 C195.9956,41.9037 190.4656,37.2957 190.4656,31.6637 C190.4656,26.0317 195.9956,21.4237 202.7536,21.4237 L221.5956,21.4237 C228.3536,21.4237 233.8836,16.8167 233.8836,11.1837 C233.8836,5.5517 228.3536,0.9447 221.5956,0.9447 L12.6996,0.9447 C5.9406,0.9447 0.4116,5.5517 0.4116,11.1837 C0.4116,16.8167 5.9406,21.4237 12.6996,21.4237"/>
  </g>
</svg>

<?xml version="1.0" encoding="UTF-8"?><svg viewBox="0 0 380 184" xmlns="http://www.w3.org/2000/svg"><g fill="#fceccb" fill-rule="evenodd"><path d="m134.76 172.98c0-5.633 5.529-10.24 12.288-10.24h123.29c6.759 0 12.288 4.607 12.288 10.24 0 5.632-5.529 10.239-12.288 10.239h-123.29c-6.759 0-12.288-4.607-12.288-10.239m206.44-38.912c0-5.633 5.529-10.24 12.288-10.24h13.926c6.759 0 12.288 4.607 12.288 10.24 0 5.632-5.529 10.239-12.288 10.239h-13.926c-6.759 0-12.288-4.607-12.288-10.239m-242.07 38.912c0-5.633 4.608-10.24 10.24-10.24s10.24 4.607 10.24 10.24c0 5.632-4.608 10.239-10.24 10.239s-10.24-4.607-10.24-10.239m-64.307-79.872c0-5.633 5.529-10.24 12.288-10.24h13.926c6.759 0 12.288 4.607 12.288 10.24 0 5.632-5.529 10.239-12.288 10.239h-13.926c-6.759 0-12.288-4.607-12.288-10.239"/><path d="m12.7 21.424h98.304c6.759 0 12.288 4.608 12.288 10.24s-5.529 10.24-12.288 10.24h-5.325c-6.758 0-12.289 4.608-12.289 10.241 0 5.632 5.531 10.239 12.289 10.239h66.764c6.759 0 12.288 4.608 12.288 10.24s-5.529 10.24-12.288 10.24h-80.281c-6.758 0-12.288 4.608-12.288 10.241 0 5.632 5.53 10.239 12.288 10.239h104.04c6.759 0 12.288 4.608 12.288 10.24s-5.529 10.24-12.288 10.24h-86.016c-6.758 0-12.288 4.608-12.288 10.241 0 5.631 5.53 10.239 12.288 10.239h208.9c6.758 0 12.287-4.608 12.287-10.239 0-5.633-5.529-10.241-12.287-10.241h-78.234c-6.758 0-12.289-4.608-12.289-10.24s5.531-10.24 12.289-10.24h29.491c6.759 0 12.288-4.607 12.288-10.239 0-5.633-5.529-10.241-12.288-10.241h0.41c-6.759 0-12.288-4.608-12.288-10.24s5.529-10.24 12.288-10.24h92.978c6.759 0 12.288-4.607 12.288-10.239 0-5.633-5.529-10.241-12.288-10.241h-160.97c-6.758 0-12.288-4.608-12.288-10.24s5.53-10.24 12.288-10.24h18.842c6.758 0 12.288-4.607 12.288-10.24 0-5.632-5.53-10.239-12.288-10.239h-208.9c-6.759 0-12.288 4.607-12.288 10.239 0 5.633 5.529 10.24 12.288 10.24"/></g></svg>
